!!!COM: Field, John
!!!CDT: ~1782/07/26/-1837/01/23/
!!!CNT: Irish
!!!OTL: Nocturne
!!!OMD: Cantabile, assai lento
**kern	**kern	**dynam
*staff2	*staff1	*staff1/2
*Ipiano	*Ipiano	*Ipiano
*clefF4	*clefG2	*
*k[b-e-]	*k[b-e-]	*k[b-e-]
*B-:	*B-:	*B-:
*M12/8	*M12/8	*M12/8
*MM110	*MM110	*MM110
=1-	=1-	=1-
8BB-\L	(2.ff\	p
8d\	.	.
8B-\	.	.
8f\	.	.
8d\	.	.
&(8B-\J&)	.	.
8G\L	4.een\	.
8c#\	.	.
8B-\	.	.
8en\	4.gg\	.
8c#\	.	.
&(8B-\J&)	.	.
=2	=2	=2
(8BB-\L	[4.ff\	.
8d\	.	.
8B-\	.	.
8f\	4ff\]	.
8d\	.	.
8B-\J	8dd\	.
8F\L	4.ff\)	.
8d\	.	.
8B-\	.	.
8f\	4r	.
8d\	.	.
8B-\J)	8r	.
=3	=3	=3
8BB-\L	(2.dd\	.
8d\	.	.
8B-\	.	.
8f\	.	.
8d\	.	.
8B-\J	.	.
8G-\L	4.ee-\	.
8c\	.	.
8A\	.	.
8e-\	4.cc\	.
8c\	.	.
&(8A\J&)	.	.
=4	=4	=4
(8BB-\L	[4.b-\	.
8d\	.	.
8B-\	.	.
8f\	4b-\]	.
8d\	.	.
8B-\J)	16dd\LL	.
.	16cc\JJ	.
(8F\L	4.b-\)	.
8d\	.	.
8B-\	.	.
8f\	4r	.
8d\	.	.
8B-\J)	8r	.
=5	=5	=5
(8BB-\L	(2.dd\	.
8d\	.	.
8B-\	.	.
8f\	.	.
8d\	.	.
8B-\J)	.	.
8AA\L	4.een\	.
8c#\	.	.
8A\	.	.
8g\	4.a/)	.
8c#\	.	.
8A\J	.	.
=6	=6	=6
(8D\L	(2.ff\	.
8d\	.	.
8A\	.	.
8f\	.	.
8d\	.	.
8A\J)	.	.
8BBn\L	4.een\	.
8d\	.	.
8A-\	.	.
8f\	4.dd\)	.
8d\	.	.
8A-\J	.	.
=7	=7	=7
8C\L	(2.cc\	.
8B-\	.	.
8G\	.	.
8en\	.	.
8B-\	.	.
&(8G\J&)	.	.
8C\L	4.dd\	.
8B-\	.	.
8G\	.	.
8e\	4.een\	.
8B-\	.	.
&(8G\J&)	.	.
=8	=8	=8
(8F\L	4.ff\)	.
8f\	.	.
8A\J)	.	.
(8E-\L	8r	.
8f\	(8fff\L	pp
(8c\J)	8aa\J)	.
8D\L	8r	.
8f\	(8bb-\L	.
8B-\J	8dd\J)	.
8C\L)	8r	.
8e-\	(8ee-\L	.
8F\J	8a\J)	.
=9	=9	=9
8BB-\L	2.b-\ (2.ff\	p
8d\	.	.
8B-\	.	.
8f\	.	.
8d\	.	.
&(8B-\J&)	.	.
8G\L	4.b-\ 4.een\	.
8c#\	.	.
8B-\	.	.
8en\	4.b-\ 4.gg\	.
8c#\	.	.
&(8B-\J&)	.	.
=10	=10	=10
*	*^	*
(8BB-\L	[4.ff/	[2.b-\	.
8d\	.	.	.
8B-\	.	.	.
8f\	4ff/]	.	.
8d\	.	.	.
8B-\J	8dd/	.	.
8F\L	4.ff/)	4.b-\]	.
8d\	.	.	.
8B-\	.	.	.
8f\	4r	4r	.
8d\	.	.	.
8B-\J)	8r	8r	.
*	*v	*v	*
=11	=11	=11
8BB-\L	(2.dd\	.
8d\	.	.
8B-\	.	.
8f\	.	.
8d\	.	.
8B-\J	.	.
&(8G-\L&)	4.ee-\	.
8c\	.	.
8A\	.	.
8e-\	4.cc\	.
8c\	.	.
8A\J	.	.
=12	=12	=12
8BB-\L	[4.b-\	.
8d\	.	.
8B-\	.	.
8f\	4b-\]	.
8d\	.	.
8B-\J	16dd\LL	.
.	16cc\JJ	.
8F\L	4.b-\)	.
8d\	.	.
8B-\	.	.
8f\	4r	.
8d\	.	.
&(8B-\J&)	8r	.
=13	=13	=13
8G\L	(2.ee-\	.
8e-\	.	.
8B-\	.	.
8g\	.	.
8e-\	.	.
&(8B-\J&)	.	.
8F\L	[4.dd\	.
8d\	.	.
8B-\	.	.
8f\	4dd\]	.
8d\	.	.
&(8B-\J&)	8ee-\	.
=14	=14	=14
(8En\L	4.dd^\	.
8c\	.	.
8B-\	.	.
8g\	2.cc\)	.
8c\	.	.
8B-\J	.	.
8E\L	.	.
8g\	.	.
8B-\J	.	.
8E-\L	4.cc\	.
8f\	.	.
8A\J)	.	.
=15	=15	=15
(8D\L	4.ff\	.
8f\	.	.
8B-\J	.	.
8E-\L	4ee-\	.
8c\	.	.
8G\J	8cc\	.
8F\L	4.b-\	.
8d\	.	.
8B-\J	.	.
8F\L	4.cc\	.
8e-\	.	.
8A\J)	.	.
=16	=16	=16
8En\L	[2.dd-\	.
8d-\	.	.
8B-\	.	.
8g\	.	.
8d-\	.	.
8B-\J	.	.
8E\L	4.dd-\]	.
8g\	.	.
8B-\J	.	.
&(8E-\L&)	(4.cc\	.
8g-\	.	.
8A\J	.	.
=17	=17	=17
*^	*	*
8Dn/L	4.Dn\	4.ff\	.
8f/	.	.	.
8B-/J	.	.	.
8E-/L	4.E-\	4ee-\	.
8c/	.	.	.
8G/J	.	8cc\	.
8F/L	4.F\	4.b-\	.
8d/	.	.	.
8B-/J	.	.	.
8F/L	4.F\	4dd^\	.
8e-/	.	.	.
8A/J	.	8cc\	.
*v	*v	*	*
=18	=18	=18
*	*^	*
&(8B-\&) 8d\	8b-\)	8r	pp
8BB-'\ 8F'\ 8B-'\L	8en'/L	8d\L	.
8BB-'\ 8F'\ 8B-'\J	8f'/J	8d\J	.
8BB-'\ 8F'\ 8B-'\L	8f#'/L	8d\L	.
8BB-'\ 8F'\ 8B-'\	8g'/	8d\	.
8BB-'\ 8F'\ 8B-'\J	8g#'/J	8d\J	.
8BB-'\ 8F'\ 8B-'\L	8a'/L	8d\L	.
8BB-'\ 8F'\ 8B-'\	8b-'/	8d\	.
8BB-'\ 8F'\ 8B-'\J	8bn'/J	8d\J	.
8BB-'\ 8F'\ 8B-'\L	8cc'/L	8d\L	.
8BB-'\ 8F'\ 8B-'\	8cc#'/	8d\	.
8BB-'\ 8F'\ (8B-'\J	8dd'/J	8d\J	.
=19	=19	=19	=19
8BB-'\ 8F'\L	8ee-'/L	8e-\ 8a\L	.
8BB-'\ 8F'\	8dd'/	8e-\ 8a\	.
8BB-'\ 8F'\J	8ee-/J	8e-\ 8a\ 8ccn\J	.
8BB-'\ 8F'\L	8bn'/L	8e-\ 8a\L	.
8BB-\ 8F\	8cc'/	8e-\ 8a\	.
8BB-'\ 8F'\J	8dd'/J	8e-\ 8a\J	.
8BB-'\ 8F'\L	8ee-'/L	8e-\ 8a\L	.
8BB-'\ 8F'\	8dd'/	8e-\ 8a\	.
8BB-'\ 8F'\J	8cc'/J	8e-\ 8a\J	.
8BB-'\ 8F'\L	8b'/L	8a\L	.
8BB-'\ 8F'\	8cc'/	8e-\ 8a\	.
8BB-\ 8F\J	8ff'/J	8e-\ 8a\J	.
=20	=20	=20	=20
8BB-\ 8F\L)	8b-/	8d\ 8b-\	pp
8BB-'\ 8F'\ 8B-'\	8en'/L	8d\L	.
8BB-'\ 8F'\ 8B-'\J	8f'/J	8d\J	.
8BB-'\ 8F'\ 8B-'\L	8f#'/L	8d\L	.
8BB-\ 8F\ 8B-\	8g'/	8d\	.
8BB-'\ 8F'\ 8B-'\J	8g#'/J	8d\J	.
8BB-'\ 8F'\ 8B-'\L	8a'/L	8d\L	.
8BB-'\ 8F'\ 8B-'\	8b-'/	8d\	.
8BB-'\ 8F'\ 8B-'\J	8bn'/J	8d\J	.
8BB-'\ 8F'\ 8B-'\L	8cc'/L	8d\L	.
8BB-'\ 8F'\ 8B-'\	&(8cc#'/&)	8d\	.
8BB-'\ 8F'\ 8B-'\J	8dd'/J	8d\J	.
=21	=21	=21	=21
8BB-'\ 8F'\L	(8ee-'/L	8e-\ 8a\L	.
8BB-'\ 8F'\	8dd'/	8e-\ 8a\	.
8BB-'\ 8F'\J	8ccn'/J	8e-\ 8a\J	.
8BB-'\ 8F'\L	8b-'/L	8e-\ 8a\L	.
8BB-'\ 8F'\	8cc'/	8e-\ 8a\	.
8BB-'\ 8F'\J	8dd'/J	8e-\ 8a\J	.
8BB-'\ 8F'\L	8ee-'/L	8e-\ 8a\L	.
8BB-'\ 8F'\	8dd'/	8e-\ 8a\	.
8BB-'\ 8F'\J	8a/ 8cc/J	8e-\J	.
8BB-'\ 8F'\L	8b-'/L	8e-\ 8a\L	.
8BB-'\ 8F'\	8cc'/	8e-\ 8a\	.
8BB-'\ 8F'\J	8ff'/J	8e-\ 8a\J	.
*	*v	*v	*
=22	=22	=22
8BB-\ 8F\	8d/ 8b-/)	.
8r	8r	.
8r	8r	.
8BB-\ 8F\ 8B-\	8f/ 8dd/	.
8r	8r	.
8r	8r	.
4.BB-\ 4.F\ 4.B-\	4.d/ 4.b-/	.
4r	(8f/L	p
.	8b-/	.
8r	8dd/J)	.
=23	=23	=23
8BB-\L	(2.ff\	.
8d\	.	.
8B-\	.	.
8f\	.	.
8d\	.	.
&(8B-\J&)	.	.
8G\L	4.een\	.
8c#\	.	.
8B-\	.	.
8en\	4.gg\	.
8c#\	.	.
&(8B-\J&)	.	.
=24	=24	=24
(8BB-\L	4.ff\	.
8d\	.	.
8B-\	.	.
8f\	4ff\	.
8d\	.	.
8B-\J	(8dd\)	.
8F\L	[8ff\L	.
8d\	16ff\k]	.
.	8ccc^\	.
8B-\	.	.
.	8bb-\	.
8f\	.	.
.	16aa\L	.
8d\	16gg\	.
.	16ff\	.
8B-\J)	16een\	.
.	16ee-\JJ)	.
=25	=25	=25
8BB-\L	(2.dd\	.
8d\	.	.
8B-\	.	.
8f\	.	.
8d\	.	.
&(8B-\J&)	.	.
8G-\L	4.ee-\	.
8c\	.	.
8A\	.	.
8e-\	4.cc\	.
8c\	.	.
&(8A\J&)	.	.
=26	=26	=26
(8BB-\L	[4.b-\	.
8d\	.	.
8B-\	.	.
8f\	8b-\L]	.
8d\	16a\L	.
.	16b-\	.
8B-\J	16dd\	.
.	16cc\JJ	.
8F\L	4.b-\)	.
8d\	.	.
8B-\	.	.
8f\	4r	.
8d\	.	.
8B-\J)	8r	.
=27	=27	=27
(8BB-\L	(2.dd\	.
8d\	.	.
8B-\	.	.
8f\	.	.
8d\	.	.
(8B-\J)	.	.
8AA\L	4.een\	.
8c#\	.	.
8A\	.	.
8g\	4.a/)	.
8c#\	.	.
8A\J)	.	.
=28	=28	=28
(8D\L	(2.ff\	.
8d\	.	.
8A\	.	.
8f\	.	.
8d\	.	.
(8A\J)	.	.
8BB-\L	16.een\L)	.
.	16.ff\	.
8d\	.	.
.	16.bb-\	.
8G\	.	.
.	16.aa\	.
8f\	16.gg\	.
.	16.ff\	.
8d\	.	.
.	16.ee\	.
8G\J)	.	.
.	&(16.dd\J&)	.
=29	=29	=29
8C\L	(2.cc\	.
8c\	.	.
8A\	.	.
8f\	.	.
8c\	.	.
8A\J	.	.
8A-\L	4.dd\	.
8f\	.	.
8Bn\	.	.
8G\	4.een\	.
8c\	.	.
&(8B-\J&)	.	.
=30	=30	=30
(8F\L	4.ff\)	.
8f\	.	.
8A\J)	.	.
(8E-\L	8r	.
8f\	(8ff\L	pp
(8c\J)	8a\J)	.
8D\L	8r	.
8f\	(8ff\L	.
8B-\J)	8b-\J)	.
(8C\L	8r	.
8e-\	(8ff\L	.
8F\J)	8a-\J)	.
=31	=31	=31
(8BBn\L	4.g\ [4.ff\	mf
8d\	.	.
8G\	.	.
8f\	8ff\L]	.
8d\	16ff\L	.
.	16een\	.
8B-\J)	16gg\	.
.	16ff\JJ	.
(8C\L	4.ee-\	.
8e-\	.	.
8G\	.	.
8F\	4.dd\	.
8d\	.	.
8A-\J)	.	.
=32	=32	=32
8G\L	(4.cc\	.
8g\	.	.
&(8e-\J&)	.	.
8G\L	4.dd\	.
8f\	.	.
&(8Bn\J&)	.	.
8c\L	4.ee-\	.
8g\	.	.
&(8e-\J&)	.	.
8An\ 8c\L	4.ff\	.
8f\	.	.
&(8e-\J&)	.	.
=33	=33	=33
8BB-\L	2.dd\	.
8d\	.	.
8B-\	.	.
8F\	.	.
8d\	.	.
8B-\J	.	.
8E-\L	4.cc\	.
8c\	.	.
8B-\	.	.
8En\	4.g/	.
8c\	.	.
&(8B-\J&)	.	.
=34	=34	=34
8F\L	2.b-\	.
8d\	.	.
8B-\	.	.
8f\	.	.
8d\	.	.
&(8B-\J&)	.	.
8F\L	4.a/)	.
8c\	.	.
8A\J	.	.
&(8f\&)	8r	.
8r	(8ff\L	.
8r	8een\J	.
=35	=35	=35
8G-\L	2.ee-\	.
8e-\	.	.
8B-\	.	.
8g-\	.	.
8e-\	.	.
&(8B-\J&)	.	.
8F\L	4.dd\	.
8d\	.	.
8B-\	.	.
8f\	4.dd-\	.
8d-\	.	.
&(8B-\J&)	.	.
=36	=36	=36
(8En\L	8cc\)	.
8c\	(16ff#\LL	.
.	16gg\	.
8B-\	16bb-\	.
.	16aa\JJ	.
8g\	8gg\)	.
8c\	(16fff#\LL	.
.	16ggg\	.
8B-\J	16bbb-\	.
.	16aaa\JJ	.
8E\L	8ggg\)	.
8c\)	8r	.
8B-\J	8r	.
(8E-\L	4.cc\	.
8fn\	.	.
8A\J)	.	.
=37	=37	=37
(8D''\L	[4.ff\	.
8Bn\	.	.
(8A-\J)	.	.
8E-\L	8ff\L]	.
8c\	8ee-\	.
8G\J)	8cc\J	.
(8F\L	4.b-\	.
8d\	.	.
8B-\J)	.	.
(8F\L	4dd\	.
8e-'\	.	.
8An\J)	8cc\	.
=38	=38	=38
*	*^	*
8B-\ 8d\	8b-\	8r	.
4BB-\ 4F\ 4B-\	(8en'/L	8d\L	pp
.	8f'/J	8d\J	.
8BB-\ 8F\ 8B-\L	8f#/L	8d\L	.
8BB-\ 8F\ 8B-\	8g'/	8d\	.
8BB-\ 8F\ 8B-\J	8g#/J	8d\J	.
8BB-\ 8F\ 8B-\L	8a'/L	8d\L	.
8BB-\ 8F\ 8B-\	8b-'/	8d\	.
8BB-\ 8F\ 8B-\J	8bn/J	8d\J	.
8BB-\ 8F\ 8B-\L	8cc'/L	8d\L	.
8BB-\ 8F\ 8B-\	8cc#'/	8d\	.
8BB-\ 8F\ 8B-\J	8dd'/J	8d\J	.
=39	=39	=39	=39
8BB-\ 8F\L	8ee-/L	8e-\ 8a\L	.
8BB-\ 8F\	8dd/	8e-\ 8a\	.
8BB-\ 8F\J	8ccn/J	8e-\ 8a\J	.
8BB-\ 8F\L	8bn/L	8a\L	.
8BB-\ 8F\	8cc/	8e-\ 8a\	.
8BB-\ 8F\J	8dd/J	8e-\ 8a\J	.
8BB-\ 8F\L	8ee-/L	8e-\ 8a\L	.
8BB-\ 8F\	8dd/	8e-\ 8a\	.
8BB-\ 8F\J	8cc/J	8e-\ 8a\J	.
8BB-\ 8F\L	8b/L	8e-\ 8a\L	.
8BB-\ 8F\	8cc/	8e-\ 8a\	.
8BB-\ 8F\J	8ff/J	8e-\ 8a\J	.
=40	=40	=40	=40
8BB-\ 8F\	8b-/)	8d\	.
8BB-\ 8F\ 8B-\L	(8en/L	8d\L	pp
8BB-\ 8F\ 8B-\J	8f/J	8d\J	.
8BB-\ 8F\ 8B-\L	8f#/L	8d\L	.
8BB-\ 8F\ 8B-\	8g/	8d\	.
8BB-\ 8F\ 8B-\J	8g#/J	8d\J	.
8BB-\ 8F\ 8B-\L	8a/L	8d\L	.
8BB-\ 8F\ 8B-\	8b-/	8d\	.
8BB-\ 8F\ 8B-\J	8bn/J	8d\J	.
8BB-\ 8F\ 8B-\L	8cc/L	8d\L	.
8BB-\ 8F\ 8B-\	8cc#/	8d\	.
8BB-\ 8F\ 8B-\J	8dd/J	8d\J	.
=41	=41	=41	=41
8G-\L	8ee-/L	8e-^\ 8a^\L	.
8BB-\ 8G-\	8dd/	8e-\ 8a\	.
8BB-\ 8G-\J	8cc/J	8e-\ 8a\J	.
8BB-\ 8G-\L	8bn/L	8e-\ 8a\L	.
8BB-\ 8G-\	8cc/	8e-\ 8a\	.
8BB-\ 8G-\J	8dd/J	8e-\ 8a\J	.
8BB-\ 8G-\L	8ee-/L	8e-\ 8a\L	.
8BB-\ 8G-\	8dd/	8e-\ 8a\	.
8BB-\ 8G-\J	8cc/J	8e-\ 8a\J	.
8BB-\ 8F\L	8b/L	8e-\ 8a\L	.
8BB-\ 8F\	8cc/	8e-\ 8a\	.
8BB-\ 8F\J	8ff/J	8e-\ 8a\J	.
*	*v	*v	*
=42	=42	=42
*^	*	*
8BB-\ 8F\	4.r	8d/ 8b-/)	.
8r	.	(8dd\L	p
8r	.	8ee-\J	.
*v	*v	*	*
*clefG2	*	*
*^	*	*
8dd\L	4.r	8ff\L	.
8cc\	.	8een\ 8gg\	.
8f\J	.	8ee-\ 8aa\J	.
&(8b-\&)	4.r	8dd\ 8bb-\)	.
*v	*v	*	*
*clefF4	*	*
*^	*	*
8D\L	.	8r	.
8E-\J	.	8r	.
4.FF\	8F/L	(8f/ 8dd/L	.
.	8G/	8en/ 8cc/	.
.	8A/J	8e-/ 8f/J	.
*v	*v	*	*
=43	=43	=43
8BB-\ &(8B-\&)	8d/) 8b-/	.
(8DD/L	8r	pp
8EE-/J	8r	.
*	*clefF4	*clefF4
8FF'/L	(8F\L	.
8FF'/	8F^\ 8G^\	.
8FF'/J)	8E-^\ 8F^\ 8A^\J	.
[4.BBB-/ [4.FF/	[4.D\ [4.F\ [4.B-\	.
8BBB-/] 8FF/]	8D\] 8F\] 8B-\])	.
8r	8r	.
8r	8r	.
==	==	==
*-	*-	*-
!!!ENC: Craig Stuart Sapp
!!!END: 2004/09/03/
